icons/fill-new-other-thumb-point.svg

<svg xmlns="http://www.w3.org/2000/svg" width="32px" height="32px" viewBox="0 0 32 32" version="1.1">
    <title>fill-new-other-thumb-point</title>
    <g id="fill-new-other-thumb-point" stroke-width="1" fill-rule="evenodd">
        <path d="M29,27 L29,17.4415184 C29,16.5806576 28.4491398,15.8163799 27.6324555,15.5441518 L21.3675445,13.4558482 C20.5508602,13.1836201 20,12.4193424 20,11.5584816 L20,5.5 C20,3.56700338 18.4329966,2 16.5,2 C14.5670034,2 13,3.56700338 13,5.5 L13,19.5 L13,19.5 L8.55548048,16.4230249 C7.32796749,15.5732083 5.69438058,15.6042146 4.5,16.5 C3.38114296,17.3391428 3.12047534,18.9100305 3.90834206,20.0655684 L9.40455022,28.1266736 C9.77710193,28.6730828 10.3956746,29 11.0570049,29 L27,29 C28.1045695,29 29,28.1045695 29,27 Z" id="&#36335;&#24452;-82" />
    </g>
</svg>

<svg xmlns="http://www.w3.org/2000/svg" viewBox="0 0 32 32"><path fill="currentColor" d="M29 27v-9.558a2 2 0 0 0-1.368-1.898l-6.264-2.088A2 2 0 0 1 20 11.558V5.5a3.5 3.5 0 0 0-7 0v14l-4.445-3.077A3.469 3.469 0 0 0 4.5 16.5a2.615 2.615 0 0 0-.592 3.566l5.497 8.06a2 2 0 0 0 1.652.874H27a2 2 0 0 0 2-2"/></svg>
